PortableApps/LibreOfficePortable/App/libreoffice/help/media/icon-themes/cmd/lc_showerrors.svg

<svg viewBox="0 0 24 24" xmlns="http://www.w3.org/2000/svg"><path d="m12 2c-2.9999977 1.2902292-6.0000014 1.5095623-9 2v10c0 2.10145 2.964565 4.745423 6.2324219 6.621094l-.515625-.431641.0332031.025391c-.46693-.357815-.7620847-.915111-.7871094-1.447266-.0250246-.532155.1695715-1.00611.4726563-1.36914.3030847-.363031.7355996-.64055 1.2636719-.710938.5280722-.070388 1.1290222.120081 1.5644532.515625l2.447266 2.041016 6.771484-8.482422c.14331-.185131.323211-.331274.517578-.453125v-6.308594c-2.999998-.4904377-6.000002-.7097708-9-2z" fill="#e68497"/><path d="m12 5c-1.104569 0-2 .6715735-2 1.5 0 1.5000002.667318 3.5 1.333984 7.5h1.332032c.666666-4 1.333984-5.9999998 1.333984-7.5 0-.8284265-.895431-1.5-2-1.5zm0 10a2 2 0 0 0 -1.972656 1.683594c.437171.026085.888822.203858 1.236328.519531l1.791016 1.494141a2 2 0 0 0 .945312-1.697266 2 2 0 0 0 -2-2z" fill="#fff"/><path d="m21.996094 11a.96386939.96386939 0 0 0 -.722656.373047l-7.419922 9.292969-3.261719-2.722657a.96386939.96386939 0 1 0 -1.2343751 1.478516l4.0175781 3.353516a.96386939.96386939 0 0 0 1.369141-.138672l8.035156-10.060547a.96386939.96386939 0 0 0 -.783203-1.576172z" fill="#76a797"/></svg>

<svg viewBox="0 0 24 24" xmlns="http://www.w3.org/2000/svg">
  <path
     style="fill:#e68497"
     d="M 12 2 C 9.0000023 3.2902292 5.9999986 3.5095623 3 4 L 3 14 C 3 16.10145 5.964565 18.745423 9.2324219 20.621094 L 8.7167969 20.189453 L 8.75 20.214844 C 8.28307 19.857029 7.9879153 19.299733 7.9628906 18.767578 C 7.937866 18.235423 8.1324621 17.761468 8.4355469 17.398438 C 8.7386316 17.035407 9.1711465 16.757888 9.6992188 16.6875 C 10.227291 16.617112 10.828241 16.807581 11.263672 17.203125 L 13.710938 19.244141 L 20.482422 10.761719 C 20.625732 10.576588 20.805633 10.430445 21 10.308594 L 21 4 C 18.000002 3.5095623 14.999998 3.2902292 12 2 z " />
  <path
     style="fill:#ffffff"
     d="M 12 5 C 10.895431 5 10 5.6715735 10 6.5 C 10 8.0000002 10.667318 10 11.333984 14 L 12.666016 14 C 13.332682 10 14 8.0000002 14 6.5 C 14 5.6715735 13.104569 5 12 5 z M 12 15 A 2 2 0 0 0 10.027344 16.683594 C 10.464515 16.709679 10.916166 16.887452 11.263672 17.203125 L 13.054688 18.697266 A 2 2 0 0 0 14 17 A 2 2 0 0 0 12 15 z " />
  <path
     style="fill:#76a797"
     d="m 21.996094,11 a 0.96386939,0.96386939 0 0 0 -0.722656,0.373047 l -7.419922,9.292969 -3.261719,-2.722657 A 0.96386939,0.96386939 0 1 0 9.3574219,19.421875 L 13.375,22.775391 a 0.96386939,0.96386939 0 0 0 1.369141,-0.138672 L 22.779297,12.576172 A 0.96386939,0.96386939 0 0 0 21.996094,11 Z" />
</svg>
